X: 1
T: Hullichan Jig
R: jig
M: 6/8
L: 1/8
K: G Major
GFG BGB|ded dBG|cBc ege|dBG A2D|
GFG BGB|ded Bdg|fed cBA|(G3 G3):|
d^cd Bcd|e2e efg|faf def|g2g gfe|
d^cd Bcd|ece gfe|dcB AGF|(G3 G3):||

